svg/color/lfi.svg

<?xml version="1.0" encoding="UTF-8" ?>
<!DOCTYPE svg PUBLIC "-//W3C//DTD SVG 1.1//EN" "http://www.w3.org/Graphics/SVG/1.1/DTD/svg11.dtd">
<svg width="250pt" height="250pt" viewBox="0 0 250 250" version="1.1" xmlns="http://www.w3.org/2000/svg">
<g id="#ffffffff">
<path fill="#ffffff" opacity="1.00" d=" M 0.00 0.00 L 106.88 0.00 C 100.85 1.37 94.75 2.55 89.00 4.91 C 69.53 10.91 51.32 21.44 36.97 35.96 C 20.98 51.44 9.57 71.47 3.85 92.93 C 2.40 97.81 0.80 102.66 0.00 107.70 L 0.00 0.00 Z" />
<path fill="#ffffff" opacity="1.00" d=" M 141.62 0.00 L 250.00 0.00 L 250.00 110.80 C 249.65 106.33 247.90 102.15 246.91 97.81 C 241.01 71.10 226.08 46.44 205.01 28.97 C 191.93 17.82 176.38 9.70 159.93 4.77 C 153.84 3.15 147.53 2.28 141.62 0.00 Z" />
<path fill="#ffffff" opacity="1.00" d=" M 246.09 155.24 C 247.93 149.72 249.17 144.03 250.00 138.28 L 250.00 250.00 L 138.17 250.00 C 143.95 249.08 149.69 247.90 155.26 246.08 C 177.27 240.55 197.79 228.93 213.58 212.59 C 229.51 197.00 240.56 176.76 246.09 155.24 Z" />
<path fill="#ffffff" opacity="1.00" d=" M 0.00 142.20 C 0.93 147.55 2.35 152.79 4.19 157.90 C 5.60 163.24 7.60 168.39 9.67 173.49 C 24.91 210.29 58.87 238.53 97.80 246.89 C 102.14 247.82 106.27 249.65 110.74 250.00 L 0.00 250.00 L 0.00 142.20 Z" />
</g>
<g id="#9a9a9aff">
<path fill="#9a9a9a" opacity="1.00" d=" M 106.88 0.00 L 117.59 0.00 C 107.97 1.03 98.49 3.05 89.00 4.91 C 94.75 2.55 100.85 1.37 106.88 0.00 Z" />
<path fill="#9a9a9a" opacity="1.00" d=" M 246.91 97.81 C 247.90 102.15 249.65 106.33 250.00 110.80 L 250.00 118.64 C 248.57 111.76 247.76 104.78 246.91 97.81 Z" />
<path fill="#9a9a9a" opacity="1.00" d=" M 0.00 132.39 C 1.03 140.95 2.73 149.41 4.19 157.90 C 2.35 152.79 0.93 147.55 0.00 142.20 L 0.00 132.39 Z" />
</g>
<g id="#000000ff">
<path fill="#000000" opacity="1.00" d=" M 117.59 0.00 L 141.62 0.00 C 147.53 2.28 153.84 3.15 159.93 4.77 C 176.38 9.70 191.93 17.82 205.01 28.97 C 226.08 46.44 241.01 71.10 246.91 97.81 C 247.76 104.78 248.57 111.76 250.00 118.64 L 250.00 129.48 C 248.75 138.07 247.30 146.64 246.09 155.24 C 240.56 176.76 229.51 197.00 213.58 212.59 C 197.79 228.93 177.27 240.55 155.26 246.08 C 146.96 247.39 138.60 248.32 130.36 250.00 L 119.56 250.00 C 112.34 248.72 105.08 247.74 97.80 246.89 C 58.87 238.53 24.91 210.29 9.67 173.49 C 7.60 168.39 5.60 163.24 4.19 157.90 C 2.73 149.41 1.03 140.95 0.00 132.39 L 0.00 117.58 C 1.18 109.35 2.56 101.14 3.85 92.93 C 9.57 71.47 20.98 51.44 36.97 35.96 C 51.32 21.44 69.53 10.91 89.00 4.91 C 98.49 3.05 107.97 1.03 117.59 0.00 M 68.00 73.89 C 53.37 83.06 42.84 98.74 40.47 115.90 C 38.36 128.83 40.94 142.39 47.28 153.83 C 54.92 167.88 68.49 178.42 83.87 182.68 C 97.52 186.43 112.54 185.21 125.32 179.07 L 125.72 179.29 C 140.71 185.98 158.37 186.89 173.59 180.42 C 198.36 171.05 214.60 143.55 210.72 117.35 C 208.69 98.70 196.93 81.64 180.65 72.50 C 164.48 63.13 143.99 62.39 126.90 69.80 C 126.35 69.90 125.26 70.11 124.71 70.21 C 106.77 61.77 84.71 63.28 68.00 73.89 Z" />
</g>
<g id="#00ffffff">
<path fill="#00ffff" opacity="1.00" d=" M 68.00 73.89 C 84.71 63.28 106.77 61.77 124.71 70.21 C 121.34 72.29 118.34 74.89 114.99 76.99 C 99.84 88.22 90.52 107.13 91.32 126.03 C 91.18 148.36 105.47 169.36 125.32 179.07 C 112.54 185.21 97.52 186.43 83.87 182.68 C 68.49 178.42 54.92 167.88 47.28 153.83 C 40.94 142.39 38.36 128.83 40.47 115.90 C 42.84 98.74 53.37 83.06 68.00 73.89 Z" />
<path fill="#00ffff" opacity="1.00" d=" M 126.90 69.80 C 143.99 62.39 164.48 63.13 180.65 72.50 C 196.93 81.64 208.69 98.70 210.72 117.35 C 214.60 143.55 198.36 171.05 173.59 180.42 C 158.37 186.89 140.71 185.98 125.72 179.29 C 137.36 172.89 147.74 163.63 153.52 151.49 C 161.31 136.21 161.87 117.52 155.18 101.75 C 149.83 88.39 139.26 77.41 126.43 70.99 C 126.58 70.59 126.74 70.19 126.90 69.80 Z" />
</g>
<g id="#141416ff">
<path fill="#141416" opacity="1.00" d=" M 124.71 70.21 C 125.26 70.11 126.35 69.90 126.90 69.80 C 126.74 70.19 126.58 70.59 126.43 70.99 C 139.26 77.41 149.83 88.39 155.18 101.75 C 161.87 117.52 161.31 136.21 153.52 151.49 C 147.74 163.63 137.36 172.89 125.72 179.29 L 125.32 179.07 C 105.47 169.36 91.18 148.36 91.32 126.03 C 90.52 107.13 99.84 88.22 114.99 76.99 C 118.34 74.89 121.34 72.29 124.71 70.21 Z" />
</g>
<g id="#8d8d8dff">
<path fill="#8d8d8d" opacity="1.00" d=" M 0.00 107.70 C 0.80 102.66 2.40 97.81 3.85 92.93 C 2.56 101.14 1.18 109.35 0.00 117.58 L 0.00 107.70 Z" />
</g>
<g id="#939393ff">
<path fill="#939393" opacity="1.00" d=" M 246.09 155.24 C 247.30 146.64 248.75 138.07 250.00 129.48 L 250.00 138.28 C 249.17 144.03 247.93 149.72 246.09 155.24 Z" />
<path fill="#939393" opacity="1.00" d=" M 97.80 246.89 C 105.08 247.74 112.34 248.72 119.56 250.00 L 110.74 250.00 C 106.27 249.65 102.14 247.82 97.80 246.89 Z" />
</g>
<g id="#8a8a8aff">
<path fill="#8a8a8a" opacity="1.00" d=" M 130.36 250.00 C 138.60 248.32 146.96 247.39 155.26 246.08 C 149.69 247.90 143.95 249.08 138.17 250.00 L 130.36 250.00 Z" />
</g>
</svg>

<?xml version="1.0" encoding="utf-8"?>
<!-- Generator: Adobe Illustrator 26.0.3, SVG Export Plug-In . SVG Version: 6.00 Build 0)  -->
<svg version="1.1" id="Layer_1" xmlns="http://www.w3.org/2000/svg" xmlns:xlink="http://www.w3.org/1999/xlink" x="0px" y="0px"
	 viewBox="0 0 250 250" style="enable-background:new 0 0 250 250;" xml:space="preserve">
<style type="text/css">
	.st0{fill:#9A9A9A;}
	.st1{fill:#00FFFF;}
	.st2{fill:#141416;}
	.st3{fill:#8D8D8D;}
	.st4{fill:#939393;}
	.st5{fill:#8A8A8A;}
</style>
<g id="_x23_9a9a9aff">
	<path class="st0" d="M106.9,0h10.7C108,1,98.5,3,89,4.9C94.8,2.5,100.8,1.4,106.9,0z"/>
	<path class="st0" d="M246.9,97.8c1,4.3,2.7,8.5,3.1,13v7.8C248.6,111.8,247.8,104.8,246.9,97.8z"/>
	<path class="st0" d="M0,132.4c1,8.6,2.7,17,4.2,25.5c-1.8-5.1-3.3-10.3-4.2-15.7V132.4z"/>
</g>
<g id="_x23_000000ff">
	<path d="M117.6,0h24c5.9,2.3,12.2,3.2,18.3,4.8c16.5,4.9,32,13,45.1,24.2c21.1,17.5,36,42.1,41.9,68.8c0.8,7,1.7,14,3.1,20.8v10.8
		c-1.2,8.6-2.7,17.2-3.9,25.8c-5.5,21.5-16.6,41.8-32.5,57.3c-15.8,16.3-36.3,28-58.3,33.5c-8.3,1.3-16.7,2.2-24.9,3.9h-10.8
		c-7.2-1.3-14.5-2.3-21.8-3.1c-38.9-8.4-72.9-36.6-88.1-73.4c-2.1-5.1-4.1-10.2-5.5-15.6C2.7,149.4,1,140.9,0,132.4v-14.8
		c1.2-8.2,2.6-16.4,3.8-24.7C9.6,71.5,21,51.4,37,36c14.3-14.5,32.6-25,52-31C98.5,3,108,1,117.6,0 M68,73.9
		c-14.6,9.2-25.2,24.8-27.5,42c-2.1,12.9,0.5,26.5,6.8,37.9c7.6,14.1,21.2,24.6,36.6,28.8c13.6,3.8,28.7,2.5,41.4-3.6l0.4,0.2
		c15,6.7,32.6,7.6,47.9,1.1c24.8-9.4,41-36.9,37.1-63.1c-2-18.7-13.8-35.7-30.1-44.8c-16.2-9.4-36.7-10.1-53.7-2.7
		c-0.6,0.1-1.6,0.3-2.2,0.4C106.8,61.8,84.7,63.3,68,73.9z"/>
</g>
<g id="_x23_00ffffff">
	<path class="st1" d="M68,73.9c16.7-10.6,38.8-12.1,56.7-3.7c-3.4,2.1-6.4,4.7-9.7,6.8c-15.2,11.2-24.5,30.1-23.7,49
		c-0.1,22.3,14.2,43.3,34,53c-12.8,6.1-27.8,7.4-41.4,3.6c-15.4-4.3-29-14.8-36.6-28.8c-6.3-11.4-8.9-25-6.8-37.9
		C42.8,98.7,53.4,83.1,68,73.9z"/>
	<path class="st1" d="M126.9,69.8c17.1-7.4,37.6-6.7,53.7,2.7c16.3,9.1,28,26.2,30.1,44.8c3.9,26.2-12.4,53.7-37.1,63.1
		c-15.2,6.5-32.9,5.6-47.9-1.1c11.6-6.4,22-15.7,27.8-27.8c7.8-15.3,8.3-34,1.7-49.7c-5.3-13.4-15.9-24.3-28.7-30.8
		C126.6,70.6,126.7,70.2,126.9,69.8z"/>
</g>
<g id="_x23_141416ff">
	<path class="st2" d="M124.7,70.2c0.6-0.1,1.6-0.3,2.2-0.4c-0.2,0.4-0.3,0.8-0.5,1.2c12.8,6.4,23.4,17.4,28.7,30.8
		c6.7,15.8,6.1,34.5-1.7,49.7c-5.8,12.1-16.2,21.4-27.8,27.8l-0.4-0.2c-19.8-9.7-34.1-30.7-34-53c-0.8-18.9,8.5-37.8,23.7-49
		C118.3,74.9,121.3,72.3,124.7,70.2z"/>
</g>
<g id="_x23_8d8d8dff">
	<path class="st3" d="M0,107.7c0.8-5,2.4-9.9,3.8-14.8c-1.3,8.2-2.7,16.4-3.8,24.7V107.7z"/>
</g>
<g id="_x23_939393ff">
	<path class="st4" d="M246.1,155.2c1.2-8.6,2.7-17.2,3.9-25.8v8.8C249.2,144,247.9,149.7,246.1,155.2z"/>
	<path class="st4" d="M97.8,246.9c7.3,0.9,14.5,1.8,21.8,3.1h-8.8C106.3,249.6,102.1,247.8,97.8,246.9z"/>
</g>
<g id="_x23_8a8a8aff">
	<path class="st5" d="M130.4,250c8.2-1.7,16.6-2.6,24.9-3.9c-5.6,1.8-11.3,3-17.1,3.9H130.4z"/>
</g>
</svg>
